public/finn.svg

<svg width="92" height="92" viewBox="0 0 92 92" xmlns="http://www.w3.org/2000/svg" xmlns:xlink="http://www.w3.org/1999/xlink">
    <path id="Rounded-Rectangle" fill="#ffffff" fill-rule="evenodd" stroke="none" d="M 2.75 20 C 1.23123 20 0 21.231232 0 22.75 L 0 49.25 C 0 50.768768 1.23123 52 2.75 52 L 89.25 52 C 90.768768 52 92 50.768768 92 49.25 L 92 22.75 C 92 21.231232 90.768768 20 89.25 20 Z"/>
    <path id="Path" fill="#0063fb" fill-rule="evenodd" stroke="none" d="M 11.252 22.088005 L 3.022 22.088005 C 2.508765 22.088005 2.092552 22.503769 2.092 23.016998 L 2.092 48.983002 C 2.092 49.497002 2.508 49.912998 3.022 49.912998 L 29.974001 49.912998 L 29.974001 40.77 C 29.974001 30.467999 21.575001 22.087006 11.252 22.087006 Z"/>
    <path id="path1" fill="#06befb" fill-rule="evenodd" stroke="none" d="M 88.976997 22.088005 L 32.997002 22.088005 C 32.750347 22.087738 32.513695 22.185463 32.339096 22.359688 C 32.164501 22.533905 32.066265 22.770348 32.066002 23.016998 L 32.066002 49.911999 L 88.976997 49.911999 C 89.489845 49.912003 89.905899 49.496845 89.906998 48.984001 L 89.906998 23.016998 C 89.906998 22.50338 89.490623 22.087006 88.976997 22.087006 Z"/>
    <path id="path2" fill="#ffffff" fill-rule="evenodd" stroke="none" d="M 41.507 30.575001 L 49.044998 30.575001 C 49.373001 30.575001 49.638 30.84 49.638 31.167 L 49.638 33.022999 C 49.638 33.180183 49.575493 33.33091 49.464252 33.441959 C 49.353016 33.553013 49.202183 33.615265 49.044998 33.615002 L 44.212002 33.615002 L 44.212002 36.064999 L 48.060001 36.064999 C 48.388 36.064999 48.653 36.328999 48.653 36.655998 L 48.653 38.236 C 48.653 38.393181 48.590492 38.543911 48.479256 38.654961 C 48.368015 38.76601 48.217182 38.828266 48.060001 38.827999 L 44.212002 38.827999 L 44.212002 40.834 C 44.211735 40.991009 44.149109 41.141479 44.037899 41.252316 C 43.926693 41.363148 43.776009 41.425266 43.618999 41.424999 L 41.507 41.424999 C 41.349991 41.425266 41.19931 41.363148 41.0881 41.252316 C 40.976891 41.141479 40.914265 40.991009 40.914001 40.834 L 40.914001 31.167 C 40.914001 30.84 41.18 30.575001 41.507 30.575001 Z M 52.922001 30.575001 L 55.033001 30.575001 C 55.361 30.575001 55.625999 30.84 55.625999 31.167 L 55.625999 40.834 C 55.625736 40.991009 55.56311 41.141479 55.4519 41.252316 C 55.340691 41.363148 55.19001 41.425266 55.033001 41.424999 L 52.923 41.424999 C 52.76582 41.425529 52.61488 41.363533 52.503452 41.25267 C 52.392029 41.141808 52.329266 40.99118 52.328999 40.834 L 52.328999 31.167 C 52.328999 30.84 52.595001 30.575001 52.922001 30.575001 Z M 80.467003 30.575001 L 78.355003 30.575001 C 78.197815 30.574734 78.046982 30.63699 77.935745 30.748039 C 77.824509 30.859089 77.762001 31.009819 77.762001 31.167 L 77.762001 35.907001 L 74.460999 30.929001 C 74.314217 30.707863 74.066422 30.574955 73.801003 30.575001 L 72.18 30.575001 C 72.02282 30.574734 71.871986 30.63699 71.76075 30.748039 C 71.649506 30.859089 71.586998 31.009819 71.586998 31.167 L 71.586998 40.834 C 71.586998 41.16 71.852997 41.424999 72.18 41.424999 L 74.292 41.424999 C 74.449005 41.425266 74.599693 41.363148 74.710899 41.252316 C 74.822113 41.141479 74.884735 40.991009 74.885002 40.834 L 74.885002 36.147999 L 78.113998 41.068001 C 78.260162 41.290714 78.508606 41.424896 78.775002 41.424999 L 80.468002 41.424999 C 80.625008 41.425266 80.775688 41.363148 80.886902 41.252316 C 80.998108 41.141479 81.060738 40.991009 81.060997 40.834 L 81.060997 31.167 C 81.060997 31.009819 80.998489 30.859089 80.887253 30.748039 C 80.776016 30.63699 80.625183 30.574734 80.468002 30.575001 Z M 65.638 30.575001 L 67.75 30.575001 C 68.078003 30.575001 68.343002 30.84 68.343002 31.167 L 68.343002 40.834 C 68.342735 40.991009 68.280113 41.141479 68.1689 41.252316 C 68.057693 41.363148 67.907005 41.425266 67.75 41.424999 L 66.057999 41.424999 C 65.791252 41.425236 65.542358 41.291008 65.396004 41.068001 L 62.167 36.147999 L 62.167 40.834 C 62.166737 40.991009 62.104111 41.141479 61.992901 41.252316 C 61.881691 41.363148 61.731007 41.425266 61.574001 41.424999 L 59.463001 41.424999 C 59.305992 41.425266 59.155308 41.363148 59.044098 41.252316 C 58.932892 41.141479 58.870266 40.991009 58.869999 40.834 L 58.869999 31.167 C 58.869999 30.84 59.134998 30.575001 59.463001 30.575001 L 61.084999 30.575001 C 61.349998 30.575001 61.598 30.708 61.744999 30.929001 L 65.044998 35.907001 L 65.044998 31.167 C 65.044998 30.84 65.310997 30.575001 65.638 30.575001 Z"/>
</svg>

<svg width="92" height="92" viewBox="0 0 92 92" xmlns="http://www.w3.org/2000/svg"><path fill="#fff" fill-rule="evenodd" d="M2.75 20A2.75 2.75 0 0 0 0 22.75v26.5A2.75 2.75 0 0 0 2.75 52h86.5A2.75 2.75 0 0 0 92 49.25v-26.5A2.75 2.75 0 0 0 89.25 20Z"/><path fill="#0063fb" fill-rule="evenodd" d="M11.252 22.088h-8.23a.93.93 0 0 0-.93.929v25.966c0 .514.416.93.93.93h26.952V40.77c0-10.302-8.399-18.683-18.722-18.683Z"/><path fill="#06befb" fill-rule="evenodd" d="M88.977 22.088h-55.98a.93.93 0 0 0-.931.929v26.895h56.911a.93.93 0 0 0 .93-.928V23.017a.93.93 0 0 0-.93-.93Z"/><path fill="#fff" fill-rule="evenodd" d="M41.507 30.575h7.538c.328 0 .593.265.593.592v1.856a.592.592 0 0 1-.593.592h-4.833v2.45h3.848c.328 0 .593.264.593.591v1.58a.592.592 0 0 1-.593.592h-3.848v2.006a.592.592 0 0 1-.593.591h-2.112a.592.592 0 0 1-.593-.591v-9.667c0-.327.266-.592.593-.592Zm11.415 0h2.111c.328 0 .593.265.593.592v9.667a.592.592 0 0 1-.593.591h-2.11a.592.592 0 0 1-.594-.591v-9.667c0-.327.266-.592.593-.592Zm27.545 0h-2.112a.592.592 0 0 0-.593.592v4.74l-3.301-4.978a.792.792 0 0 0-.66-.354H72.18a.592.592 0 0 0-.593.592v9.667c0 .326.266.591.593.591h2.112a.592.592 0 0 0 .593-.591v-4.686l3.229 4.92a.791.791 0 0 0 .661.357h1.693a.592.592 0 0 0 .593-.591v-9.667a.592.592 0 0 0-.593-.592Zm-14.829 0h2.112c.328 0 .593.265.593.592v9.667a.592.592 0 0 1-.593.591h-1.692a.791.791 0 0 1-.662-.357l-3.229-4.92v4.686a.592.592 0 0 1-.593.591h-2.111a.592.592 0 0 1-.593-.591v-9.667c0-.327.265-.592.593-.592h1.622c.265 0 .513.133.66.354l3.3 4.978v-4.74c0-.327.266-.592.593-.592Z"/></svg>
